packages/core/src/svgs/zcx.svg

<svg width="24" height="24" viewBox="0 0 24 24" fill="none" xmlns="http://www.w3.org/2000/svg">
<g clip-path="url(#clip0_31_21183)">
<path d="M0 0H24V24H0V0Z" fill="#F0F3FA"/>
<path d="M11.0228 8.62279L9.41996 10.0714L12.3428 13.2857H5.14282C5.20207 12.5852 5.40406 11.9042 5.73637 11.2847C6.06868 10.6652 6.52428 10.1203 7.0751 9.68346C7.62593 9.24665 8.26033 8.92721 8.93925 8.7448C9.61818 8.56239 10.3273 8.52087 11.0228 8.62279ZM12.33 8.99136L11.8457 9.42851H13.1314C12.8785 9.25708 12.6128 9.11565 12.33 8.99136ZM14.4728 10.7142H11.7085L14.58 13.9285L11.5371 16.7142H9.77139L12.2014 14.5714H5.19854C5.32578 15.3378 5.62458 16.0655 6.0726 16.7002C6.52062 17.3348 7.10628 17.8601 7.78582 18.2366C8.46535 18.6131 9.2212 18.8312 9.99687 18.8746C10.7725 18.9179 11.548 18.7854 12.2652 18.487C12.9825 18.1886 13.6231 17.7319 14.139 17.1511C14.655 16.5703 15.033 15.8804 15.2449 15.133C15.4568 14.3855 15.497 13.5999 15.3626 12.8347C15.2281 12.0696 14.9225 11.3447 14.4685 10.7142H14.4728Z" fill="#05F1A4"/>
<path d="M18.8014 9.42878H11.8457L14.2243 7.28592H12.5014L9.41999 10.0716L12.3428 13.2859H9.53142C8.98249 12.5164 8.6559 11.6106 8.5874 10.6678C8.5189 9.72498 8.71114 8.7815 9.14306 7.94067C9.57498 7.09983 10.2299 6.39405 11.0362 5.90061C11.8425 5.40717 12.769 5.14509 13.7143 5.14307C16.2686 5.14307 18.39 6.9945 18.7971 9.42878H18.8014ZM18.8571 10.7145H11.7086L14.58 13.9288L12.9943 15.3774C13.6886 15.4767 14.3958 15.4333 15.0727 15.2497C15.7496 15.0661 16.3819 14.7462 16.9308 14.3097C17.4797 13.8731 17.9337 13.3291 18.2649 12.7109C18.5962 12.0927 18.7977 11.4133 18.8571 10.7145ZM11.6957 15.0174L12.2014 14.5716H10.8686C11.1301 14.7451 11.407 14.8943 11.6957 15.0174Z" fill="#00AFA4"/>
<path d="M13.1315 9.4284C12.8743 9.25697 12.6086 9.11554 12.33 8.99126L11.8457 9.4284H13.1315ZM12.3429 13.2855L9.4286 10.0713L11.0272 8.62269C10.2779 8.51589 9.5143 8.5744 8.79003 8.79412C8.56122 9.54978 8.50947 10.348 8.63879 11.1268C8.76811 11.9057 9.07502 12.6444 9.53574 13.2855H12.3429ZM14.4643 10.7141H11.7086L14.5715 13.9284L12.99 15.377C13.7337 15.4812 14.4912 15.4228 15.21 15.2055C15.4388 14.4499 15.4906 13.6517 15.3613 12.8728C15.2319 12.0939 14.925 11.3553 14.4643 10.7141ZM10.8686 14.5713C11.13 14.7427 11.4043 14.8927 11.6957 15.017L12.1972 14.5713H10.8686Z" fill="#01D5A3"/>
</g>
<defs>
<clipPath id="clip0_31_21183">
<rect width="24" height="24" fill="white"/>
</clipPath>
</defs>
</svg>

<svg xmlns="http://www.w3.org/2000/svg" width="24" height="24" fill="none" viewBox="0 0 24 24"><g clip-path="url(#a)"><path fill="#F0F3FA" d="M0 0h24v24H0z"/><path fill="#05F1A4" d="M11.023 8.623 9.42 10.07l2.923 3.215h-7.2a5.15 5.15 0 0 1 5.88-4.663m1.307.368-.484.438h1.285a5 5 0 0 0-.801-.438m2.143 1.723h-2.764l2.871 3.214-3.043 2.786H9.771l2.43-2.143H5.2a5.156 5.156 0 1 0 9.27-3.857z"/><path fill="#00AFA4" d="M18.801 9.429h-6.955l2.378-2.143h-1.723L9.42 10.072l2.923 3.214H9.53a5.151 5.151 0 0 1 4.183-8.143 5.15 5.15 0 0 1 5.083 4.286zm.056 1.285H11.71l2.871 3.215-1.586 1.448a5.153 5.153 0 0 0 5.863-4.663m-7.161 4.303.505-.445H10.87q.393.26.827.445"/><path fill="#01D5A3" d="M13.132 9.428a5.4 5.4 0 0 0-.802-.437l-.484.437zm-.79 3.858L9.43 10.07l1.598-1.448a5.2 5.2 0 0 0-2.237.171 5.14 5.14 0 0 0 .746 4.492zm2.122-2.572H11.71l2.863 3.214-1.582 1.449a5.2 5.2 0 0 0 2.22-.171 5.14 5.14 0 0 0-.746-4.492m-3.595 3.857q.39.259.827.446l.501-.446z"/></g><defs><clipPath id="a"><path fill="#fff" d="M0 0h24v24H0z"/></clipPath></defs></svg>
